X: 1
T: The Colliers'
R: reel
M: 4/4
L: 1/8
K: Dmix
|:AG|~F2 FG ~A3B|cAdB cABG|AddA d3e|fdeA d^cAG|
~F2DF ~A3B|cAdB cABG|Add^c ~A3G|EFGE FD:|
|:de|fded fde^c|Add^c Adde|fdde fde^c|~A3B cBcd|
eaag efge|(3Bcd ed ^cAGG|Add^c~A3G|EFGE FD:|


Tune 2154	Setting 26527

